X:96
T:Hanging Johnny
M:6/8
L:1/8
Q:1/4=3D120
K:Eb
E2F|\
G2G F2E|GB2 z2 e |c3(cB)G|B3 z2B|
c2c B2G|FE2 z(EF)|G3(FB2)|E3 ||
